assets/2023/icons/makefile_dark.svg

<svg width="16" height="16" viewBox="0 0 16 16" fill="none" xmlns="http://www.w3.org/2000/svg">
<path d="M5.35355 7.64645L4.5 6.79289V8V13C4.5 13.2761 4.27614 13.5 4 13.5H2C1.72386 13.5 1.5 13.2761 1.5 13V3C1.5 2.72386 1.72386 2.5 2 2.5H4.08579C4.21839 2.5 4.34557 2.55268 4.43934 2.64645L4.79289 2.29289L4.43934 2.64645L7.64645 5.85355L8 6.20711L8.35355 5.85355L11.5607 2.64645C11.6544 2.55268 11.7816 2.5 11.9142 2.5H14C14.2761 2.5 14.5 2.72386 14.5 3V13C14.5 13.2761 14.2761 13.5 14 13.5H12C11.7239 13.5 11.5 13.2761 11.5 13V8V6.79289L10.6464 7.64645L8 10.2929L5.35355 7.64645Z" stroke="#548AF7"/>
</svg>

<svg xmlns="http://www.w3.org/2000/svg" width="16" height="16" fill="none" viewBox="0 0 16 16"><path stroke="#548AF7" d="M5.354 7.646 4.5 6.793V13a.5.5 0 0 1-.5.5H2a.5.5 0 0 1-.5-.5V3a.5.5 0 0 1 .5-.5h2.086a.5.5 0 0 1 .353.146l.354-.353-.354.353 3.207 3.208.354.353.354-.353 3.207-3.208a.5.5 0 0 1 .353-.146H14a.5.5 0 0 1 .5.5v10a.5.5 0 0 1-.5.5h-2a.5.5 0 0 1-.5-.5V6.793l-.854.853L8 10.293z"/></svg>
